!!!SOCIAL_FUNCTION:	songs for success in hunting
!!!PDT:	1956
!!!OTL: No_216_Song_for_Success_in_Hunting_(c).krn
!!!LANG: Non-Tone
!!!LING_GROUP: Muskogean
!!!REG: Florida
**kern
*staff1
=1-
*clefF4
*k[f#c#g#d#]
*M2/4
4.r
8G#\
=2
4.E\
8r
=3
8E\L
8E\J
(8E/L
8BB/J)
=4
4.BB/
8r
=5
8A\L
8G#\J
(8A\L
8G#\J)
=6
4.E\
8r
=7||
*M3/4
8E\L
8E\J
(8E/L
8BB/J)
4BB/
=8||
*M7/8
8B\L
8B\
8c#\
8B\
8A\
(8A\
8G#\J)
=9||
*M2/4
8A\L
8A\J
(8A\L
8G#\J)
=10
4.E\
8r
=11
8E\L
8E\J
(8E/L
8BB/J)
=12
2BB/
=13
8A\L
8G#\J
(8A\L
8G#\J)
=14
4.E\
8r
=15||
*M3/4
8E\L
8E\J
(8E/L
8BB/J)
4BB/
=16||
*M7/8
8B\L
8B\
8c#\
8B\
8A\
(8A\
8G#\J)
=17||
*M2/4
8A\L
8A\J
(8A\L
8G#\J)
=18
4.E\
8r
=19||
*M3/4
8E\L
8E\J
(8E/L
8BB/J)
4BB/
=20||
*M2/4
8A\L
8G#\J
(8A\L
8G#\J)
=21
4.E\
8r
=22
8E\L
8E\J
(8E/L
8BB/J)
=23
4BB/
8G#\L
8E\J
=24
2G#\
=25
16BB/LL
16BB/J
8BB/J
8C#/L
8BB/J
==
*-
